!!!!SEGMENT: pl-kozmzk--mzk-m-31--001-004_szymanowska-maria--vingt-exercices-et-preludes-pour-le-pianoforte-preludium-g-moll.krn
!!!cenid: 18xx:440
!!!COM: Szymanowska, Maria
!!!COM-rismID: pe140138
!!!CDT: 1789/12/14-1831/07/25
!!!CNT: Polish
!!!GTL: Vingt Exercices et Préludes pour le Pianoforte
!!!OTL: Preludium g-moll
!!!OMV: 004
!!!PDT: 1819
!!!AGN: Secular; Prelude
!!!YEC: Copyright 2022 Narodowy Instytut Fryderyka Chopina (https://polishscores.org)
!!!YEM: License CC-BY-4.0 (https://creativecommons.org/licenses/by/4.0)
!!!SMS-siglum: PL-KOZmzk
!!!SMS-shelfmark: mzk/m/31
!!!SMS-shelfwork: 001-004 G
!!!SMS-variant:
!!!SMS-altvar:
!!!NIFC-rismSourceID: 1001025323
!!!NIFC-rismChildID: 1001025327
!!!NIFC-islandoraID: pl-kozmzk:6325
!!!URL-pdf-islandora: https://repozytorium.nifc.pl/islandora/object/pl-kozmzk%3A6325/datastream/PDF/view
!!!URL-scan: https://polish.musicsources.pl/pl/lokalizacje/galeria/rekopisy/462 @EN{Scan on Polish Music Sources Website} @PL{Skany w portalu Dziedzictwo Muzyki Polskiej w otwartym dostępie}
!!!IIIF:
!!!ONB-nifc:
!!!AIN: 1 organ
!!!key:
!!!OMD:
!!!OMD-mod: Agitato
**kern	**kern	**dynam
*part1	*part1	*
*staff2	*staff1	*
*Iorgan	*Iempty	*
*I"Organo	*	*
*clefF4	*clefG2	*
*k[b-e-]	*k[b-e-]	*
*g:	*g:	*
*M12/8	*M12/8	*
*>[A,A,B,B,C]	*>[A,A,B,B,C]	*
*>A	*>A	*
!	!LO:MO:mod=!null:null	!
!	!LO:TX:a:t=problem&colon; takty na 11/8&colon; global	!
!	!LO:TX:a:Bi:t=Agitato:mod=	!
!	!	!LO:DY:t= :mod=%s
!	!	!LO:MO:mod=!LO&colon;DY&colon;ed=
!	!	!null
4r	(8b-L 8g/	p
.	8ccJ 8a/)	.
=1	=1	=1
!	!	!LO:MO:mod=.
!	!LO:SIC:s=8dd 8b-`\:v	!
4GG/	8dd 8b-\	p
.	(8ddL 8b-^\	.
8r	8ee-J 8cc\)	.
4d 4B- 4G\	8dd 8b-`\	.
.	(8dddL 8bb-^\	.
8r	8eee-J 8ccc\)	.
4D 4DD/	8ddd 8bb-`\	.
.	(8aL 8f#X^/	.
8r	8b-J 8g/)	.
!	!LO:SIC:s=8cc 8a`\:v	!
4c 4A 4D\	8cc 8a\	.
.	(8aaL 8ff#X^\	.
8r	8bb-J 8gg\)	.
=2	=2	=2
!!LO:MO:ori
*	*^	*
!	!LO:SIC:s=8ccc 8aa`\:v	!	!
4DD/	8ccc 8aa\	8ryyyy	.
.	(8aL 8f#X^/	4ryyyy	.
8r	8b-J 8g/)	.	.
4c 4A 4D\	8cc/	8a\	.
.	8cccL 8aa^\	8ryyyy	.
8r	8dddJ 8bb-\	2..ryyyy	.
4GG/	8ccc 8aa`\	.	.
.	8b-L 8g^/	.	.
8r	8ccJ 8a/	.	.
4d 4B- 4G\	8dd 8b-\	.	.
.	(8bb-L 8gg^\	.	.
8r	8cccJ 8aa\)	.	.
*	*v	*v	*
!!LO:MO:end
!!LO:MO:mod
!! 4DD/	8ccc 8aa`\	.
!! .	(8aL 8f#X^/	.
!! 8r	8b-J 8g/)	.
!! 4c 4A 4D\	8cc/ 8a\`	.
!! .	(8cccL 8aa^\	.
!! 8r	8dddJ 8bb-\)	.
!! 4GG/	8ccc 8aa`\	.
!! .	8b-L (8g^/	.
!! 8r	8ccJ 8a/)	.
!! 4d 4B- 4G\	8dd 8b-`\	.
!! .	(8bb-L 8gg^\	.
!! 8r	8cccJ 8aa\)	.
!!LO:MO:end
=3	=3	=3
!	!LO:SIC:s=8ddd 8bb-`\:v	!
4BBB-/	8ddd 8bb-\	.
.	(8b-L 8g^/	.
8r	8ccJ 8a/)	.
4G 4D 4BB-\	8dd 8b-`\	.
.	(8dddL 8bb- 8gg^\	.
8r	8ggg\J)	.
!	!LO:SIC:s=8eee-`\:v	!
4CC/	8eee-\	.
!	!LO:SIC:s=(8a/^L:v	!
.	(8a/L	.
8r	8cc/J)	.
!	!LO:SIC:s=8ee-`\:v	!
4A 4E- 4C\	8ee-\	.
.	(8cccL 8aa^\	.
8r	8eee-\J)	.
!!LO:LB:g=original
=	=	=
4DD/	8ddd`\	.
.	(8ggL 8dd^\	.
8r	8bb-\J)	.
!	!LO:SIC:s=8ddd`\:v	!
4c 4A 4D\	8ddd\	.
!	!LO:SIC:s=(8ccL 8a^\:v	!
.	8ccL 8a^\	.
!	!LO:SIC:s=8ff#X\J):v	!
8r	8ff#X\J	.
8B- 8G\	8gg`\	.
8E-^\L	(8cL 8A/	.
8D\J	8f#X/J)	.
!	!LO:SIC:s=8g 8B-`/:v	!
8GG/	8g 8B-/	.
=4:|!	=4:|!	=4:|!
*>B	*>B	*
4r	(8b-L 8g\	.
.	8dd\J)	.
=5	=5	=5
!	!LO:SIC:s=8gg`\:v	!
4GG/	8gg\	f
.	(8bnL 8f^/	.
8r	8dd/J)	.
!	!LO:SIC:s=8gg`\:v	!
8Bn 8D\	8gg\	.
!	!LO:SIC:s=(8dddL 8bbn 8gg\^:v	!
8r	(8dddL 8bbn 8gg\	.
*clefG2	*	*
!	!	!LO:DY:a
!	!	!LO:MO:mod=.
8r	8ggg\J)	p
!	!	!LO:DY:t= :mod=%s
!	!	!LO:MO:mod=!LO&colon;DY&colon;ed=
!	!	!null
!	!LO:SIC:s=4eee- 4ccc`\:v	!
(8ee-L 8cc`\	4eee- 4ccc\	p
8ffJ 8dd`\	.	.
4gg 4ee-\)	8r	.
.	(8e-L 8c/	.
8r	8g/J)	.
*clefF4	*	*
=6	=6	=6
!	!LO:SIC:s=8f`/:v	!
4FF/	8f/	.
.	(8ee-L 8cc 8f^\	.
8r	8gg\J)	.
4A 4C\	8ff`\	.
.	(8eee-L 8ccc 8ff^\	.
8r	8ggg\J)	.
*clefG2	*	*
!	!LO:SIC:s=4fff 4ddd`\:v	!
8r	4fff 4ddd\	.
(8ddL 8b-`\	.	.
8ee-J 8cc`\	8r	.
4ff 4dd\)	8r	.
.	(8dL 8B-/	.
8r	8f/J)	.
!!LO:LB:g=original
=7	=7	=7
*clefF4	*	*
8G 8GG\	4e- 4d 4B-/	.
*clefG2	*	*
!LO:SIC:s=(8b-L 8g`/:v	!	!
(8b-L 8g/	.	.
!LO:SIC:s=8dd/`J:v	!	!
8dd/J	8r	.
4ee-\)	8r	.
.	(8bb-L 8gg\	.
8r	8eee-\J)	.
!	!LO:SIC:s=4ddd 4ccc 4aa`\:v	!
8r	4ddd 4ccc 4aa\	.
(8aL 8f#X/	.	.
8cc#X/J)	8r	.
8dd\	8r	.
!	!LO:MO:mod=!null:null	!
!	!LO:TX:b:t=ben               marc    -    ca      -       te	!
(8en/L	(8bb-L 8gg\	.
8g/J)	8ddd\J)	.
=8	=8	=8
!	!LO:MO:mod=!LO&colon;TX&colon;b&colon;i&colon;t=ben marcato	!
!	!null	!
8f/L	(8cccL 8aa 8ff`\	.
8f#X/	8ccc 8aa 8ee-`\	.
8g/	8ccc 8gg 8ee-`\	.
8a-X/	8ccc 8ff#X 8ee-`\	.
8an/	8ccc 8ff# 8dd`\	.
8f#/J	8cccJ 8aa 8ee-`\	.
8g/L	8bb-L 8ff# 8dd`\	.
8d/	8ff# 8cc`\	.
8e-/	8gg 8b-`\	.
8c/	8ee- 8g`\	.
8d/	8dd 8b-`\	.
*clefF4	*	*
8D/J	8ccJ 8f#X`\)	.
!!LO:LB:g=original
=9	=9	=9
4G\	8b- 8g/	.
.	(8ddL 8b-\	.
8r	8ee-J 8cc\)	.
*clefG2	*	*
!	!LO:SIC:s=4dd 4b-`\:v	!
8r	4dd 4b-\	.
(8dddL 8bb-\	.	.
8eee-J 8ccc\)	8r	.
4ddd 4bb-`\	8r	.
.	(8ccL 8a\	.
8r	8ddJ 8b-\)	.
!	!LO:SIC:s=4cc 4a`\:v	!
8r	4cc 4a\	.
*clefF4	*	*
(8AL 8F#X\	.	.
8B-J 8G\)	8r	.
=10	=10	=10
!LO:SIC:s=4c 4A`\:v	!	!
4c 4A\	(8aL 8f#X/	.
!	!LO:SIC:s=8b-J 8g/):v	!
.	8b-J 8g/	.
*clefG2	*	*
!	!LO:SIC:s=4cc 4a/`:v	!
8r	4cc 4a/)	.
8r	.	.
(8cccL 8aa\	8r	.
!LO:SIC:s=8dddJ 8bb-\):v	!	!
8dddJ 8bb-\	8r	.
!LO:SIC:s=4ccc 4aa`\:v	!	!
4ccc 4aa\)	(8b-L 8g/	.
.	8ccJ 8a/)	.
!	!LO:SIC:s=4dd 4b-`\:v	!
8r	4dd 4b-\	.
*clefF4	*	*
8r	.	.
!LO:SIC:s=(8B-L 8G\:v	!	!
8B-L 8G\	4r	.
!LO:SIC:s=8cJ 8A\):v	!	!
8cJ 8A\	.	.
=11	=11	=11
!LO:SIC:s=4d 4B-`\:v	!	!
4d 4B-\	8r	.
.	(8b-L 8g/	.
8r	8dd/J)	.
*clefG2	*	*
!	!LO:SIC:s=4gg`\:v	!
8r	4gg^\	.
(8dddL 8bbn\	.	.
8ggg\J)	8r	.
!LO:SIC:s=4eee- 4ccc`\:v	!	!
4eee- 4ccc\	8r	.
.	(8ccL 8g/	.
8r	8ee-/J)	.
*clefF4	*	*
!	!LO:SIC:s=4gg`\:v	!
8r	4gg\	.
(8E-L 8C\	.	.
8A\J)	8r	.
!!LO:LB:g=original
=	=	=
!LO:SIC:s=4D`\:v	!	!
4D\	8r	.
.	(8gL 8d/	.
8r	8b-/J)	.
!	!LO:TX:b:i:t=cresc.	!
4DD/	8dd\	.
.	(8ccL 8a\	.
8r	8ff#X\J)	.
8GG/	8gg 8b-\	.
!	!LO:SIC:s=(8cccL 8aa\:v	!
(8e-^\L	8cccL 8aa\	.
!	!LO:SIC:s=8fff#X\J):v	!
8d\J)	8fff#X\J	.
8G\	8ggg 8bb-\	f
=12:|!	=12:|!	=12:|!
*>C	*>C	*
!	!	!LO:DY:t= :mod=%s
!	!	!LO:MO:mod=!LO&colon;DY&colon;ed=
!	!	!null
8D/L	4r	p
8BB-/J	.	.
=13	=13	=13
4GG/	8r	.
!	!	!LO:MO:mod=.
.	(8bnL 8f/	p
8r	8dd/J)	.
*clefG2	*	*
8r	4gg\	.
(8dddL 8bbn\	.	.
8ggg\J)	8r	.
4eee- 4ccc\	8r	.
.	(8ccL 8g\	.
8r	8ee-\J)	.
*clefF4	*	*
8r	4gg\	.
!LO:SIC:s=(8GL 8E-\:v	!	!
(8GL 8E-^\	.	.
8C\J)	8r	.
=14	=14	=14
4GG/	8r	.
.	(8e-L 8c/	.
8r	8f#X/J)	.
*clefG2	*	*
8r	4cc\	.
(8ff#XL 8ee-\	.	.
8aa\J)	8r	.
4gg\	8r	.
!	!LO:SIC:s=(8gL 8d/:v	!
.	8gL 8d/	.
!	!LO:SIC:s=8bn/J):v	!
8r	8bn/J	.
*clefF4	*	*
8r	4dd\	.
(8D/L	.	.
8BBn/J)	8r	.
!!LO:LB:g=original
=15	=15	=15
*^	*	*
4GG\	8reyyyy	4ryy	.
.	(8BnL 8F/	.	.
8rCCyyyy	8d/J)	4ryy	.
*clefG2	*	*	*
8reyyyy	4eee-/	.	.
(8ddL 8bn\	.	4ryy	.
8gg\J)	8rbbbyyyy	.	.
4ee- 4cc\	8rbbbyyyy	8ryy	.
.	8ryyyy	(8cL 8G/	.
8reyy	2ryyyyy	8e-/J)	.
*clefF4	*	*	*
8rGG	.	4g/	.
!LO:SIC:s=(8E-\L:v	!	!	!
8E-\L	.	.	.
!LO:SIC:s=8C\J):v	!	!	!
8C\J	.	8r	.
*v	*v	*	*
=16	=16	=16
!	!	!LO:HP:t=poco a poco cresc.
4GG/	8r	<
!	!LO:MO:mod=!null:null	!
!	!LO:TX:b:t=poco        a                   poco         cre        -        scen                  -                do.	!
.	8e-L 8c/	.
8r	8f#X/J	.
8r	4.cc^\	.
(8F#X^\L	.	.
8E-\J)	.	.
4FF#X/	8r	.
.	8f#/L	.
8r	8a/J	.
8r	4.ee-^\	.
(8F#^\L	.	.
8E-\J)	.	.
=17	=17	=17
4GG/	8r	.
.	8ccL 8a\	.
8r	8ee-\J	.
8r	4.aa^\	.
(8F#X^\L	.	.
8E-\J)	.	.
4FF#X/	8r	.
.	8ff#XL 8ee-\	.
8r	8aa\J	.
8r	4.eee-^\	.
(8F#^\L	.	.
8E-\J)	.	.
!!LO:PB:g=original
=18	=18	=18
*	*^	*
2.G 2.GG\	8dddL 8bb-\	4ryyyy	f
.	8aa\	.	.
.	8gg\J	4ryyyy	.
.	8b-T\L	.	.
.	8a\	4ryyyy	.
.	8g\J	.	.
2.A 2.AA\	8ff#X\L	4ccc/	.
.	8ee-\	.	.
.	8dd\J	2ryyyy	.
.	8ccT\L	.	.
.	8b-\	.	.
.	8a\J	.	.
=19	=19	=19	=19
4.B- 4.BB-\	4gg/	8dd\L	.
.	.	8b-\	.
.	4ryyyy	8g\J	.
4.Bn 4.BBn\	.	8a-XT\L	.
.	1ryyyy	8g\	.
!	!	!	!LO:MO:mod=.
.	.	8ff\J	sf
!	!	!	!LO:DY:t= :mod=%s
!	!	!	!LO:MO:mod=!LO&colon;DY&colon;ed=
!	!	!	!null
8cL 8C\	.	8ee-L 8cc\	sf
8A 8AA\	.	8ff 8f\	.
8BJ 8BB\	.	8ddJ 8b-\	.
8GL 8GG\	.	8ee-L 8e-\	.
8A 8AA\	.	8cc 8a-\	.
8F#XJ 8FF#X\	.	8ddJ 8d\	.
*	*v	*v	*
=20	=20	=20
8GL 8GG/	8b-L 8g/	<
8F 8FF/	8bn 8a-X/	.
8EnJ 8EEn/	8ccJ 8g/	.
8E-XL 8EE-X/	8cc#XL 8b 8g\	.
8D 8DD/	8dd 8b 8g\	.
8C#XJ 8CC#X/	8eenJ 8b 8g\	.
4D 4DD/	4dd 4b 4g\	.
8r	8r	[
!	!LO:SIC:s=4ff#X 4ccn 4a\:v	!
!	!	!LO:MO:mod=ff
4d 4D\	4ff#X 4ccn 4a-\	f
8r	8r	.
=21	=21	=21
*	*^	*
4G 4GG\	8gg/	8ddL 8b-\	.
.	8ryy	8at\	.
8r	8ryy	8g\J	.
4D 4DD/	4f#X/	8e-\L	.
.	.	8dt\	.
8r	8ryy	8c\J	.
2GG 2GGG;/	2g;/	2d 2B-/	.
*	*v	*v	*
==	==	==
*-	*-	*-
!!!system-decoration: {(s1,s2)}
!!!filter-modern: sic -sq | shed -e "s/LO:DY:(a|b|rj)/LO:dy:$1/L" | shed -e "s/TX(.*):t=P:/tx$1:t=P:/LG" | modori -m | autostem -r | shed -e "s/yy//" | shed -k -e "s/\(y([^y])/($1/" | shed -e "s/-//B" | shed -k -e "s/[<>]//g" | shed -k -e "s/r[a-gA-G]+/r/D"
!!!ENC: Tomasz Grochalski
!!!END: 2020-06-15
!!!EED: Tomasz Grochalski
!!!EEV: 2020-06-15
!!!EED-modern: Antoni Szymański
!!!END-modern: 2022-09-20
